X:43
T:Mazurka 
R:Mazurka
S:http://www.dafo.dk/spillemand/
N:n35/33
B:Hans Markus Gravlund  Nielsen - Store-Heddinge 1865
O:Danmark
Z:<anamnese@laposte.net>
M:3/4
L:1/8
Q:1/4=120
K:G
d2 d>B G2 | e2 e>c A2 | f2 f>de>f | g2 b>gd>B | 
d2 d>B G2 | e2 e>c A2 | f2 f>de>f | g2 G2 z2 |
g2 b>ag>f | e2 e>c A2 | a2 a>gf>e | d2 d>B G2 | 
d2 d>B G2 | e2 e>c A2 | a2 f>de>f | g2 G2 z2 :|
